usr/share/tac-writer/icons/hicolor/scalable/actions/tac-emblem-synchronizing-symbolic.svg

<?xml version="1.0" encoding="UTF-8"?>
<svg height="16px" viewBox="0 0 16 16" width="16px" xmlns="http://www.w3.org/2000/svg">
    <path d="m 7.863281 1 c -0.269531 0.003906 -0.535156 0.027344 -0.800781 0.0625 c -2.109375 0.285156 -4.023438 1.527344 -5.125 3.4375 c -0.277344 0.476562 -0.113281 1.089844 0.367188 1.363281 c 0.476562 0.277344 1.089843 0.113281 1.363281 -0.363281 c 1.054687 -1.824219 3.128906 -2.789062 5.199219 -2.425781 c 1.679687 0.296875 3.058593 1.414062 3.714843 2.925781 h -1.582031 c -0.550781 0 -1 0.449219 -1 1 s 0.449219 1 1 1 h 4 c 0.550781 0 1 -0.449219 1 -1 v -4 c 0 -0.550781 -0.449219 -1 -1 -1 s -1 0.449219 -1 1 v 1.398438 c -1.023438 -1.703126 -2.75 -2.933594 -4.785156 -3.292969 c -0.453125 -0.078125 -0.90625 -0.113281 -1.351563 -0.105469 z m -6.863281 7 c -0.550781 0 -1 0.449219 -1 1 v 4 c 0 0.550781 0.449219 1 1 1 s 1 -0.449219 1 -1 v -1.394531 c 1.140625 1.894531 3.132812 3.167969 5.390625 3.367187 c 2.707031 0.238282 5.3125 -1.117187 6.671875 -3.472656 c 0.277344 -0.476562 0.113281 -1.089844 -0.367188 -1.363281 c -0.226562 -0.136719 -0.5 -0.171875 -0.757812 -0.101563 c -0.257812 0.066406 -0.476562 0.234375 -0.609375 0.464844 c -0.972656 1.683594 -2.824219 2.648438 -4.765625 2.480469 c -1.832031 -0.160157 -3.414062 -1.308594 -4.144531 -2.980469 h 1.582031 c 0.550781 0 1 -0.449219 1 -1 s -0.449219 -1 -1 -1 z m 0 0" fill="#currentColor"/>
</svg>

<?xml version="1.0" encoding="UTF-8" standalone="no"?>
<svg
   height="16"
   viewBox="0 0 16 16"
   width="16"
   version="1.1"
   id="svg1"
   xmlns="http://www.w3.org/2000/svg"
   xmlns:svg="http://www.w3.org/2000/svg">
  <defs
     id="defs1" />
  <path
     d="M 7.863281,1 C 7.59375,1.003906 7.328125,1.027344 7.0625,1.0625 4.953125,1.347656 3.039062,2.589844 1.9375,4.5 1.660156,4.976562 1.824219,5.589844 2.304688,5.863281 2.78125,6.140625 3.394531,5.976562 3.667969,5.5 4.722656,3.675781 6.796875,2.710938 8.867188,3.074219 10.546875,3.371094 11.925781,4.488281 12.582031,6 H 11 c -0.550781,0 -1,0.449219 -1,1 0,0.550781 0.449219,1 1,1 h 4 c 0.550781,0 1,-0.449219 1,-1 V 3 C 16,2.449219 15.550781,2 15,2 14.449219,2 14,2.449219 14,3 V 4.398438 C 12.976562,2.695312 11.25,1.464844 9.214844,1.105469 8.761719,1.027344 8.308594,0.992188 7.863281,1 Z M 1,8 C 0.449219,8 0,8.449219 0,9 v 4 c 0,0.550781 0.449219,1 1,1 0.550781,0 1,-0.449219 1,-1 V 11.605469 C 3.140625,13.5 5.132812,14.773438 7.390625,14.972656 10.097656,15.210938 12.703125,13.855469 14.0625,11.5 14.339844,11.023438 14.175781,10.410156 13.695312,10.136719 13.46875,10 13.195312,9.964844 12.9375,10.035156 12.679688,10.101562 12.460938,10.269531 12.328125,10.5 11.355469,12.183594 9.503906,13.148438 7.5625,12.980469 5.730469,12.820312 4.148438,11.671875 3.417969,10 H 5 C 5.550781,10 6,9.550781 6,9 6,8.449219 5.550781,8 5,8 Z m 0,0"
     fill="#currentColor"
     id="path1" />
</svg>
